X: 26117
T: McGoldrick's
R: reel
M: 4/4
K: Dmajor
d2Ad cdAd|cdef gefe|d2Ad cdAF|GEEF GABc|
d2Ad cdAd|cdef g2fg|afge fded|cdAF GABc:|
|:d2fd Adfd|d2fa gece|d2fd Adfd|ceAc eAce|
d2fd adfd|cdef g2fg|afge fded|cdAF GABc:|

